X: 32
T:Little Judique Reel
R:Reel
M:2/4
L:1/16
K:D
fg|a^gab a2f2|d2A2 A2fg|a^gab a2f2|d4 e3f|
gfga g2e2|c2A2 A2ef|gfga g2e2|c4 f3g|
a^gab a2f2|d2A2 A2fg|a^gab a2f2|d4 g3a|
b2gb a2fa|g2eg f2ed|c2A2 a2c2|d6:|
K:A
cd|e4 e3f|e2c2 B2A2|agab a2f2|e4 f3g|
a3b a3f|e2c2 a3f|e2c2 B2A2|B4 c2d2|
e4 e3f|e2c2 B2A2|agab a2f2|e4 f3g|
a3b a3f|e2c2 a3f|e2c2 B2c2|A6:|
